Arcticons/scalable/apps/galaxywearable.svg

<svg viewBox="0 0 48 48" xmlns="http://www.w3.org/2000/svg">
 <defs>
  <style>.a{fill:none;stroke:#fff;stroke-linecap:round;stroke-linejoin:round;}</style>
 </defs>
 <path class="a" d="m40.5 42.5h-33a2 2 0 0 1-2-2v-33a2 2 0 0 1 2-2h33a2 2 0 0 1 2 2v33a2 2 0 0 1-2 2z"/>
 <polyline class="a" points="20.35 19.23 17.96 28.77 15.57 19.23 13.19 28.77 10.8 19.23"/>
 <path class="a" d="m34.81 24.83a2.39 2.39 0 0 1 2.39-2.38"/>
 <line class="a" x1="34.81" x2="34.81" y1="22.45" y2="28.77"/>
 <path class="a" d="m25.64 27.57a2.39 2.39 0 0 1-2.08 1.2 2.39 2.39 0 0 1-2.38-2.38v-1.56a2.39 2.39 0 0 1 2.38-2.38 2.39 2.39 0 0 1 2.44 2.38v0.78h-4.82"/>
 <path class="a" d="m32.72 26.39a2.39 2.39 0 0 1-2.38 2.38 2.39 2.39 0 0 1-2.34-2.38v-1.56a2.39 2.39 0 0 1 2.39-2.38 2.39 2.39 0 0 1 2.38 2.38"/>
 <line class="a" x1="32.72" x2="32.72" y1="28.77" y2="22.45"/>
</svg>

<svg xmlns="http://www.w3.org/2000/svg" viewBox="0 0 48 48"><defs><style>.a{fill:none;stroke:#fff;stroke-linecap:round;stroke-linejoin:round;}</style></defs><path class="a" d="M40.5,42.5H7.5a2,2,0,0,1-2-2V7.5a2,2,0,0,1,2-2h33a2,2,0,0,1,2,2v33A2,2,0,0,1,40.5,42.5Z"/><polyline class="a" points="20.35 19.23 17.96 28.77 15.57 19.23 13.19 28.77 10.8 19.23"/><path class="a" d="M34.81,24.83a2.39,2.39,0,0,1,2.39-2.38h0"/><line class="a" x1="34.81" y1="22.45" x2="34.81" y2="28.77"/><path class="a" d="M25.64,27.57a2.39,2.39,0,0,1-2.08,1.2h0a2.39,2.39,0,0,1-2.38-2.38V24.83a2.39,2.39,0,0,1,2.38-2.38h0A2.39,2.39,0,0,1,26,24.83v.78H21.18"/><path class="a" d="M32.72,26.39a2.39,2.39,0,0,1-2.38,2.38h0A2.39,2.39,0,0,1,28,26.39V24.83a2.39,2.39,0,0,1,2.39-2.38h0a2.39,2.39,0,0,1,2.38,2.38"/><line class="a" x1="32.72" y1="28.77" x2="32.72" y2="22.45"/></svg>
